modules/hawcons-filled/icons/file-sql.svg

<?xml version="1.0" encoding="UTF-8" standalone="no"?>
<svg width="32px" height="32px" viewBox="0 0 32 32" version="1.1" xmlns="http://www.w3.org/2000/svg" xmlns:xlink="http://www.w3.org/1999/xlink" xmlns:sketch="http://www.bohemiancoding.com/sketch/ns">
    <!-- Generator: Sketch 3.0.3 (7891) - http://www.bohemiancoding.com/sketch -->
    <title>icon 24 file sql</title>
    <desc>Created with Sketch.</desc>
    <defs></defs>
    <g id="Page-1" stroke="none" stroke-width="1" fill="none" fill-rule="evenodd" sketch:type="MSPage">
        <g id="icon-24-file-sql" sketch:type="MSArtboardGroup" fill="#929292">
            <path d="M17.6756443,19.8827511 C17.463169,19.9587282 17.2340236,20 16.9951185,20 L16.0048815,20 C14.8938998,20 14,19.1019194 14,17.9940809 L14,15.0059191 C14,13.8865548 14.897616,13 16.0048815,13 L16.9951185,13 C18.1061002,13 19,13.8980806 19,15.0059191 L19,17.9940809 C19,18.4993595 18.8171018,18.9572008 18.5145823,19.3074755 L19.267767,20.0606602 L18.5606602,20.767767 L17.6756443,19.8827511 L17.6756443,19.8827511 L17.6756443,19.8827511 Z M16.7928932,19 L15.9989566,19 C15.4426603,19 15,18.5523709 15,18.0001925 L15,14.9998075 C15,14.4437166 15.4472481,14 15.9989566,14 L17.0010434,14 C17.5573397,14 18,14.4476291 18,14.9998075 L18,18.0001925 C18,18.2246463 17.9271364,18.4307925 17.8039499,18.5968431 L16.4393398,17.232233 L15.732233,17.9393398 L16.7928932,19 L16.7928932,19 L16.7928932,19 Z M8.00684834,10 C6.34621185,10 5,11.3422643 5,12.9987856 L5,20.0012144 C5,21.6573979 6.33599155,23 8.00684834,23 L24.9931517,23 C26.6537881,23 28,21.6577357 28,20.0012144 L28,12.9987856 C28,11.3426021 26.6640085,10 24.9931517,10 L8.00684834,10 L8.00684834,10 Z M10.0048815,13 C8.89761602,13 8,13.8877296 8,15 C8,16.1045695 8.88772964,17 10,17 L10.9906311,17 C11.5480902,17 12,17.4438648 12,18 C12,18.5522847 11.5573397,19 11.0010434,19 L9.99895656,19 C9.44724809,19 9,18.543716 9,18.0044713 L9,17.9931641 L8,17.9931641 L8,17.998921 C8,19.1040864 8.8938998,20 10.0048815,20 L10.9951185,20 C12.102384,20 13,19.1122704 13,18 C13,16.8954305 12.1122704,16 11,16 L10.0093689,16 C9.45190985,16 9,15.5561352 9,15 C9,14.4477153 9.44266033,14 9.99895656,14 L11.0010434,14 C11.5527519,14 12,14.453186 12,15 L13,15 C13,13.8954305 12.1061002,13 10.9951185,13 L10.0048815,13 L10.0048815,13 Z M25,19 L25,20 L20,20 L20,13 L21,13 L21,19 L25,19 L25,19 Z" id="file-sql" sketch:type="MSShapeGroup"></path>
        </g>
    </g>
</svg>

<svg width="32" height="32" viewBox="0 0 32 32" xmlns="http://www.w3.org/2000/svg"><path d="M17.676 19.883a2.017 2.017 0 0 1-.68.117h-.991A2.003 2.003 0 0 1 14 17.994v-2.988c0-1.12.898-2.006 2.005-2.006h.99c1.111 0 2.005.898 2.005 2.006v2.988c0 .505-.183.963-.485 1.313l.753.754-.707.707-.885-.885zM16.793 19h-.794A.996.996 0 0 1 15 18v-3c0-.556.447-1 .999-1h1.002c.556 0 .999.448.999 1v3c0 .225-.073.43-.196.597l-1.365-1.365-.707.707L16.792 19zm-8.786-9A3.003 3.003 0 0 0 5 12.999V20A2.996 2.996 0 0 0 8.007 23h16.986A3.003 3.003 0 0 0 28 20.001V13A2.996 2.996 0 0 0 24.993 10H8.007zm1.998 3A1.998 1.998 0 0 0 8 15c0 1.105.888 2 2 2h.99c.558 0 1.01.444 1.01 1 0 .552-.443 1-.999 1H9.999C9.447 19 9 18.544 9 18.004v-.01H8v.005A2 2 0 0 0 10.005 20h.99A1.998 1.998 0 0 0 13 18c0-1.105-.888-2-2-2h-.99C9.451 16 9 15.556 9 15c0-.552.443-1 .999-1h1.002c.552 0 .999.453.999 1h1a2 2 0 0 0-2.005-2h-.99zM25 19v1h-5v-7h1v6h4z" fill="#929292" fill-rule="evenodd"/></svg>
